static/img/kroki/51dcf335082eed1b74741468dd7ae11e.svg

<?xml version="1.0" encoding="us-ascii" standalone="no"?><svg xmlns="http://www.w3.org/2000/svg" xmlns:xlink="http://www.w3.org/1999/xlink" contentStyleType="text/css" height="374px" preserveAspectRatio="none" style="width:321px;height:374px;" version="1.1" viewBox="0 0 321 374" width="321px" zoomAndPan="magnify"><defs/><g><!--class aws_rds_snapshot--><g id="elem_aws_rds_snapshot"><rect codeLine="23" fill="#3D176E" height="39.7891" id="aws_rds_snapshot" rx="2.5" ry="2.5" style="stroke:#000D19;stroke-width:0.5;" width="193" x="73" y="328.58"/><ellipse cx="88" cy="348.4745" fill="#ADD1B2" rx="11" ry="11" style="stroke:#181818;stroke-width:1.0;"/><path d="M90.9688,354.1152 Q90.3906,354.412 89.75,354.5527 Q89.1094,354.7089 88.4063,354.7089 Q85.9063,354.7089 84.5781,353.0683 Q83.2656,351.412 83.2656,348.287 Q83.2656,345.162 84.5781,343.5058 Q85.9063,341.8495 88.4063,341.8495 Q89.1094,341.8495 89.75,342.0058 Q90.4063,342.162 90.9688,342.4589 L90.9688,345.1777 Q90.3438,344.5995 89.75,344.3339 Q89.1563,344.0527 88.5313,344.0527 Q87.1875,344.0527 86.5,345.1308 Q85.8125,346.1933 85.8125,348.287 Q85.8125,350.3808 86.5,351.4589 Q87.1875,352.5214 88.5313,352.5214 Q89.1563,352.5214 89.75,352.2558 Q90.3438,351.9745 90.9688,351.3964 L90.9688,354.1152 Z " fill="#000000"/><text fill="#D9B8FF" font-family="Helvetica" font-size="17" lengthAdjust="spacing" textLength="151" x="107" y="354.3598">aws_rds_snapshot</text></g><!--class aws_resource--><g id="elem_aws_resource"><rect codeLine="26" fill="#3D176E" height="39.7891" id="aws_resource" rx="2.5" ry="2.5" style="stroke:#000D19;stroke-width:0.5;" width="155" x="7" y="167.79"/><ellipse cx="22" cy="187.6845" fill="#ADD1B2" rx="11" ry="11" style="stroke:#181818;stroke-width:1.0;"/><path d="M24.9688,193.3252 Q24.3906,193.622 23.75,193.7627 Q23.1094,193.9189 22.4063,193.9189 Q19.9063,193.9189 18.5781,192.2783 Q17.2656,190.622 17.2656,187.497 Q17.2656,184.372 18.5781,182.7158 Q19.9063,181.0595 22.4063,181.0595 Q23.1094,181.0595 23.75,181.2158 Q24.4063,181.372 24.9688,181.6689 L24.9688,184.3877 Q24.3438,183.8095 23.75,183.5439 Q23.1563,183.2627 22.5313,183.2627 Q21.1875,183.2627 20.5,184.3408 Q19.8125,185.4033 19.8125,187.497 Q19.8125,189.5908 20.5,190.6689 Q21.1875,191.7314 22.5313,191.7314 Q23.1563,191.7314 23.75,191.4658 Q24.3438,191.1845 24.9688,190.6064 L24.9688,193.3252 Z " fill="#000000"/><text fill="#D9B8FF" font-family="Helvetica" font-size="17" lengthAdjust="spacing" textLength="113" x="41" y="193.5698">aws_resource</text></g><!--class resource--><g id="elem_resource"><rect codeLine="29" fill="#3D176E" height="39.7891" id="resource" rx="2.5" ry="2.5" style="stroke:#000D19;stroke-width:0.5;" width="113" x="113" y="7"/><ellipse cx="128" cy="26.8945" fill="#ADD1B2" rx="11" ry="11" style="stroke:#181818;stroke-width:1.0;"/><path d="M130.9688,32.5352 Q130.3906,32.832 129.75,32.9727 Q129.1094,33.1289 128.4063,33.1289 Q125.9063,33.1289 124.5781,31.4883 Q123.2656,29.832 123.2656,26.707 Q123.2656,23.582 124.5781,21.9258 Q125.9063,20.2695 128.4063,20.2695 Q129.1094,20.2695 129.75,20.4258 Q130.4063,20.582 130.9688,20.8789 L130.9688,23.5977 Q130.3438,23.0195 129.75,22.7539 Q129.1563,22.4727 128.5313,22.4727 Q127.1875,22.4727 126.5,23.5508 Q125.8125,24.6133 125.8125,26.707 Q125.8125,28.8008 126.5,29.8789 Q127.1875,30.9414 128.5313,30.9414 Q129.1563,30.9414 129.75,30.6758 Q130.3438,30.3945 130.9688,29.8164 L130.9688,32.5352 Z " fill="#000000"/><text fill="#D9B8FF" font-family="Helvetica" font-size="17" lengthAdjust="spacing" textLength="71" x="147" y="32.7798">resource</text></g><!--class snapshot--><g id="elem_snapshot"><rect codeLine="32" fill="#3D176E" height="39.7891" id="snapshot" rx="2.5" ry="2.5" style="stroke:#000D19;stroke-width:0.5;" width="117" x="197" y="167.79"/><ellipse cx="212" cy="187.6845" fill="#ADD1B2" rx="11" ry="11" style="stroke:#181818;stroke-width:1.0;"/><path d="M214.9688,193.3252 Q214.3906,193.622 213.75,193.7627 Q213.1094,193.9189 212.4063,193.9189 Q209.9063,193.9189 208.5781,192.2783 Q207.2656,190.622 207.2656,187.497 Q207.2656,184.372 208.5781,182.7158 Q209.9063,181.0595 212.4063,181.0595 Q213.1094,181.0595 213.75,181.2158 Q214.4063,181.372 214.9688,181.6689 L214.9688,184.3877 Q214.3438,183.8095 213.75,183.5439 Q213.1563,183.2627 212.5313,183.2627 Q211.1875,183.2627 210.5,184.3408 Q209.8125,185.4033 209.8125,187.497 Q209.8125,189.5908 210.5,190.6689 Q211.1875,191.7314 212.5313,191.7314 Q213.1563,191.7314 213.75,191.4658 Q214.3438,191.1845 214.9688,190.6064 L214.9688,193.3252 Z " fill="#000000"/><text fill="#D9B8FF" font-family="Helvetica" font-size="17" lengthAdjust="spacing" textLength="75" x="231" y="193.5698">snapshot</text></g><!--reverse link aws_resource to aws_rds_snapshot--><g id="link_aws_resource_aws_rds_snapshot"><path codeLine="35" d="M103.2459,223.7088 C119.5859,254.2288 142.85,297.69 159.21,328.25 " fill="none" id="aws_resource-backto-aws_rds_snapshot" style="stroke:#FFAF37;stroke-width:2.0;"/><polygon fill="none" points="94.75,207.84,97.9563,226.5408,108.5355,220.8768,94.75,207.84" style="stroke:#FFAF37;stroke-width:2.0;"/></g><!--reverse link snapshot to aws_rds_snapshot--><g id="link_snapshot_aws_rds_snapshot"><path codeLine="36" d="M236.5576,223.6676 C220.0276,254.1876 196.46,297.69 179.91,328.25 " fill="none" id="snapshot-backto-aws_rds_snapshot" style="stroke:#FFAF37;stroke-width:2.0;"/><polygon fill="none" points="245.13,207.84,231.2817,220.8101,241.8334,226.5251,245.13,207.84" style="stroke:#FFAF37;stroke-width:2.0;"/></g><!--reverse link resource to aws_resource--><g id="link_resource_aws_resource"><path codeLine="37" d="M150.7541,62.9188 C134.4141,93.4388 111.15,136.9 94.79,167.46 " fill="none" id="resource-backto-aws_resource" style="stroke:#FFAF37;stroke-width:2.0;"/><polygon fill="none" points="159.25,47.05,145.4645,60.0868,156.0437,65.7508,159.25,47.05" style="stroke:#FFAF37;stroke-width:2.0;"/></g><!--reverse link resource to snapshot--><g id="link_resource_snapshot"><path codeLine="38" d="M188.4424,62.8776 C204.9724,93.3976 228.54,136.9 245.09,167.46 " fill="none" id="resource-backto-snapshot" style="stroke:#FFAF37;stroke-width:2.0;"/><polygon fill="none" points="179.87,47.05,183.1666,65.7351,193.7183,60.0201,179.87,47.05" style="stroke:#FFAF37;stroke-width:2.0;"/></g><!--SRC=[XP1BRy8m48Jl-HMME4SAHMr0weKYLUq5LQLtjCHhOYMnersd4NtyzvP2aR5vN6U-sPtTKaiKsBHk8nfiLaYSSALD2mIDc1BPVcPhIsAW5AXH7fgFrhYhm1mQ54zOlwFJ1OJ4MwcBoY2pkF6i1oYgDTdEoDruHs3urqBZF6fM0_FKETAhpg5NHavMOwL2CXmw6CbXVeSHPaaYxP4io-Hm4Y9NLrsy-q0iz0UAeV-qkNKOrOnM_54NMsu9hsHqwBz_jkCBIAdDMjnwskkk4nca8trHWhJzbbPGix-67H9Qjsbn5bs5ax5K-Kdu-HoS5DlN2UXvIPANRA3bqZhncIJVleTiEohGrqzfn_cZvFrNcgRHekIGEEEVok-bq3jaVW00]--></g></svg>

<svg xmlns="http://www.w3.org/2000/svg" width="321" height="374" viewBox="0 0 321 374"><rect width="193" height="39.789" x="73" y="328.58" fill="#3D176E" rx="2.5" ry="2.5" style="stroke:#000d19;stroke-width:.5"/><circle cx="88" cy="348.474" r="11" fill="#ADD1B2" style="stroke:#181818;stroke-width:1"/><path d="M90.969 354.115q-.578.297-1.219.438-.64.156-1.344.156-2.5 0-3.828-1.64-1.312-1.657-1.312-4.782t1.312-4.781q1.328-1.656 3.828-1.656.703 0 1.344.156.656.156 1.219.453v2.719q-.625-.579-1.219-.844-.594-.281-1.219-.281-1.344 0-2.031 1.078-.687 1.062-.687 3.156t.687 3.172q.688 1.062 2.031 1.062.625 0 1.219-.265.594-.281 1.219-.86z"/><text x="107" y="354.36" fill="#D9B8FF" font-family="Helvetica" font-size="17" textLength="151">aws_rds_snapshot</text><rect width="155" height="39.789" x="7" y="167.79" fill="#3D176E" rx="2.5" ry="2.5" style="stroke:#000d19;stroke-width:.5"/><circle cx="22" cy="187.685" r="11" fill="#ADD1B2" style="stroke:#181818;stroke-width:1"/><path d="M24.969 193.325q-.578.297-1.219.438-.64.156-1.344.156-2.5 0-3.828-1.64-1.312-1.657-1.312-4.782t1.312-4.781q1.328-1.656 3.828-1.656.703 0 1.344.156.656.156 1.219.453v2.719q-.625-.578-1.219-.844-.594-.281-1.219-.281-1.343 0-2.031 1.078-.687 1.062-.687 3.156t.687 3.172q.688 1.062 2.031 1.062.625 0 1.219-.265.594-.281 1.219-.86z"/><text x="41" y="193.57" fill="#D9B8FF" font-family="Helvetica" font-size="17" textLength="113">aws_resource</text><rect width="113" height="39.789" x="113" y="7" fill="#3D176E" rx="2.5" ry="2.5" style="stroke:#000d19;stroke-width:.5"/><circle cx="128" cy="26.895" r="11" fill="#ADD1B2" style="stroke:#181818;stroke-width:1"/><path d="M130.969 32.535q-.578.297-1.219.438-.64.156-1.344.156-2.5 0-3.828-1.64-1.312-1.657-1.312-4.782t1.312-4.781q1.328-1.656 3.828-1.656.703 0 1.344.156.656.156 1.219.453v2.719q-.625-.578-1.219-.844-.594-.281-1.219-.281-1.344 0-2.031 1.078-.687 1.062-.687 3.156t.687 3.172q.688 1.062 2.031 1.062.625 0 1.219-.265.594-.281 1.219-.86z"/><text x="147" y="32.78" fill="#D9B8FF" font-family="Helvetica" font-size="17" textLength="71">resource</text><rect width="117" height="39.789" x="197" y="167.79" fill="#3D176E" rx="2.5" ry="2.5" style="stroke:#000d19;stroke-width:.5"/><circle cx="212" cy="187.685" r="11" fill="#ADD1B2" style="stroke:#181818;stroke-width:1"/><path d="M214.969 193.325q-.578.297-1.219.438-.64.156-1.344.156-2.5 0-3.828-1.64-1.312-1.657-1.312-4.782t1.312-4.781q1.328-1.656 3.828-1.656.703 0 1.344.156.656.156 1.219.453v2.719q-.625-.578-1.219-.844-.594-.281-1.219-.281-1.344 0-2.031 1.078-.687 1.062-.687 3.156t.687 3.172q.688 1.062 2.031 1.062.625 0 1.219-.265.594-.281 1.219-.86z"/><text x="231" y="193.57" fill="#D9B8FF" font-family="Helvetica" font-size="17" textLength="75">snapshot</text><path fill="none" d="M103.246 223.709c16.34 30.52 39.604 73.981 55.964 104.541M94.75 207.84l3.206 18.7 10.58-5.663zm141.808 15.828c-16.53 30.52-40.098 74.022-56.648 104.582m65.22-120.41-13.848 12.97 10.551 5.715zM150.754 62.919C134.414 93.439 111.15 136.9 94.79 167.46m64.46-120.41-13.786 13.037 10.58 5.664zm29.192 15.828c16.53 30.52 40.098 74.022 56.648 104.582M179.87 47.05l3.297 18.685 10.551-5.715z" style="stroke:#ffaf37;stroke-width:2"/></svg>
